!!!!SEGMENT: pl-wtm--a-35-091_gold-artur--nie-odchodz-odemnie-moj-kochanek-to-bandyta.krn
!!!cenid: 19xx:6
!!!COM: Gold, Artur
!!!COM-rismID: pe50044903
!!!CDT: 1897/03/17-1943
!!!CNT: Polish
!!!OTL: Nie odchodź odemnie/Mój kochanek to bandyta
!!!PDT: 1930
!!!AGN: Secular
!!!YEC: Copyright 2022 Narodowy Instytut Fryderyka Chopina (https://polishscores.org)
!!!YEM: License CC-BY-4.0 (https://creativecommons.org/licenses/by/4.0)
!!!SMS-siglum: PL-Wtm
!!!SMS-shelfmark: A.35.091
!!!SMS-variant:
!!!SMS-altvar:
!!!SMS-shelfwork: W
!!!NIFC-rismSourceID: 1001219405
!!!NIFC-rismChildID: 1001219405
!!!NIFC-islandoraID: pl-wtm:96072
!!!URL-pdf-islandora: https://repozytorium.nifc.pl/islandora/object/pl-wtm%3A96072/datastream/PDF/view
!!!URL-scan: https://polish.musicsources.pl/pl/lokalizacje/galeria/druki-muzyczne/21284/2 @EN{Scan on Polish Music Sources Website} @PL{Skany w portalu Dziedzictwo Muzyki Polskiej w otwartym dostępie}
!!!IIIF:
!!!ONB-nifc:
!!!OMD: Tempo di tango
!!!AIN: 1 piano 1 vox
!!!key:
**kern	**kern	**kern	**text	**text
*part2	*part2	*part1	*part1	*part1
*staff3	*staff2	*staff1	*staff1	*staff1
*I"PIANO	*	*I"ŚPIEW	*	*
*Ipiano	*	*Ivox	*	*
*ICklav	*	*ICvox	*	*
*IGacmp	*	*IGsolo	*	*
*clefF4	*clefG2	*clefG2	*	*
*k[b-]	*k[b-]	*k[b-]	*	*
*d:	*d:	*d:	*	*
*M2/4	*M2/4	*M2/4	*	*
*>[A,B,B1,B,B2,A,B,B1,B,B2]	*>[A,B,B1,B,B2,A,B,B1,B,B2]	*>[A,B,B1,B,B2,A,B,B1,B,B2]	*	*
=1	=1	=1	=1	=1
*>A	*>A	*>A	*	*
8DD/L 8D	8d/L 8f 8a	2r	.	.
8r	8d/ 8f 8a	.	.	.
8r	8d/ 8f 8a	.	.	.
8AAA/J 8AA	8d/J 8f 8a	.	.	.
=2	=2	=2	=2	=2
8DD/L 8D	8d/L 8f 8a	2r	.	.
8r	8d/ 8f 8a	.	.	.
8r	8d/ 8f 8a	.	.	.
8AAA/J 8AA	8d/J 8f 8a	.	.	.
=3||	=3||	=3||	=3||	=3||
*	*	*	*v:1	*v:2
8.DD/L 8.D	8.d/L	8.d/	Mój	Prze-
16EE/Jk 16E	16e/Jk	16e/	ko-	-gra
16FF/LL 16F	16f/LL	16f/	-cha-	w kar-
16GG/ 16G	16g/	16g/	-nek	-ty
16GG#X/ 16G#X	16g#X/	16g#X/	to	swą
16AA/JJ 16A	16a/JJ	16a/	ban-	ko-
=4	=4	=4	=4	=4
8C\L 8c	8cc\L	8cc\	-dy-	-chan-
8BBn\ 8Bn	8bn\	8bn\	-ta,	-kę,
8BB-X\ 8B-X	8b-X\	8b-X\	pi-	szu-
8AA\J 8A	8a\J	8a\	-jak,	-ler,
=5	=5	=5	=5	=5
8GG/L 8G	[2e/	2e/	gracz,	zbój,
8E/J 8B- 8d	.	.	.	.
8E/L 8B- 8d	.	.	.	.
8DD/J 8D	.	.	.	.
!!LO:LB:g=original
=6	=6	=6	=6	=6
8GG/L 8G	8e/L]	8r	.	.
*	*	*	*v:1	*v:2
8E/J 8B- 8d	16b-/L	16b-\	A-	U-
.	16a/JJ	16a/	-ni	-ko-
8E/L 8B- 8d	8g/L	8g/	śmiech,	-cha-
8GG/J 8G	16f/L	16f/	a-	-ny
.	16e/JJ	16e/	-ni	ten
=7	=7	=7	=7	=7
8AA/L	[2f/	2f/	płacz,	mój,
8F/J 8A 8d	.	.	.	.
8F/L 8A 8d	.	.	.	.
8AAA/J 8AA	.	.	.	.
=8	=8	=8	=8	=8
8AA/L	8f/L]	8r	.	.
8F/J 8A 8d	16a/L	16a/	A-	Z ser-
.	16g/JJ	16g/	-ni	-cem
8F/L 8A 8d	8f/L	8f/	wdzięk	trwar-
8AAA/J 8AA	16e/L	16e/	mo-	-dszem
.	16d/JJ	16d/	-ich	od
=9	=9	=9	=9	=9
8CC#X/L 8C#X	[2e/	2e/	lic	skał...
8E/J 8G 8A	.	.	.	.
8E/L 8G 8A	.	.	.	.
8AA/J	.	.	.	.
=10	=10	=10	=10	=10
8CC#X/L 8C#X	8e/L]	8r	.	.
8E/J 8G 8A	16g/L	16g/	Nie	Cze-
.	16f/JJ	16f/	ob-	-mu
8E/L 8G 8A	8e/L	8e/	-cho-	los
8AA/J	16d/L	16d/	-dzi	mi
.	16c#X/JJ	16c#X/	go	go
!!LO:LB:g=original
=11	=11	=11	=11	=11
*	*	*	*v:1	*v:2
8.DD/L 8.D	8.d/L	8.d/	nic,	dał?
16EE/Jk 16E	16e/Jk	16e/	Lecz	Źle
16FF/LL 16F	16f/LL	16f/	gry	z nim,
16GG/ 16G	16g/	16g/	ca-	bez
16GG#X/ 16G#X	16g#X/	16g#X/	-łu-	nie-
16AA/JJ 16A	16a/JJ	16a/	-je	-go
=12	=12	=12	=12	=12
8C\L 8c	8cc\L	8cc\	pię-	go-
8BBn\ 8Bn	8bn\	8bn\	-kny	-rzej
8BB-X\ 8B-X	8b-X\	8b-X\	jest	bę-
8AA\J 8A	8a\J	8a/	jak	-dzie,
=13	=13	=13	=13	=13
8GG/L 8G	[2e/	2e/	bóg	wiem,
8E/J 8B- 8d	.	.	.	.
8E/L 8B- 8d	.	.	.	.
8DD/J 8D	.	.	.	.
=14	=14	=14	=14	=14
8GG/L 8G	8e/L]	8r	.	.
8E/J 8B- 8d	16b-/L	16b-\	Prę-	Prze-
.	16a/JJ	16a/	-ży	-zna-
8E/L 8B- 8d	8g/L	8g/	pier-	-cze-
8GG/J 8G	16f/L	16f/	-si	-niem
.	16e/JJ	16e/	jak	jest
=15	=15	=15	=15	=15
8AA/L	[2f/	2f/	łuk,	mem
8F/J 8A 8d	.	.	.	.
8F/L 8A 8d	.	.	.	.
8AAA/J 8AA	.	.	.	.
=16	=16	=16	=16	=16
8AA/L	8f/L]	8r	.	.
8F/J 8A 8d	16a/L	16a/	Wio-	Je-
.	16g/JJ	16g/	-sną	-go
8F/L 8A 8d	8f/L	8f/	da	ko-
8AAA/J 8AA	16e/L	16e/	bu-	-chać
.	16d/JJ	16d/	-kiet	śród
!!LO:LB:g=original
=17	=17	=17	=17	=17
*	*	*	*v:1	*v:2
8CC#X/L 8C#X	[2e/	2e/	róż,	łez,
8E/J 8G 8A	.	.	.	.
8E/L 8G 8A	.	.	.	.
8AA/J	.	.	.	.
=18	=18	=18	=18	=18
8CC#X/L 8C#X	8e/L]	8r	.	.
8E/J 8G 8A	16g/L	16g/	La-	Przy
.	16f/JJ	16f/	-tem	nim
8E/L 8G 8A	8e/L	8e/	rzu-	sko-
8AAA/J 8AA	16d/L	16d/	-ci	-nać
.	16c#X/JJ	16c#X/	mnie	jak
=19	=19	=19	=19	=19
*^	*	*	*	*
8F/L 8A	8DD\L 8D	[2d/	2d/	już!	pies...
8F/ 8A	8r	.	.	.	.
8F/ 8A	8r	.	.	.	.
8F/J 8A	8AA\J	.	.	.	.
=20	=20	=20	=20	=20	=20
4F/ 4A	4DD\ 4D	8d/L]	8r	.	.
*	*	*	*	*v:1.2.	*
.	.	16d/L	16d/	Ach,	.
.	.	16e/JJ	16e/	nie	.
4r	4ryy	8f/L	8f/	od-	.
.	.	16g/L	16g/	-chodź	.
.	.	16a/JJ	16a/	o-	.
*v	*v	*	*	*	*
=21!|:	=21!|:	=21!|:	=21!|:	=21!|:
*>B	*>B	*>B	*	*
!	!	!LO:TX:a:t=REFRAIN.	!	!
8GG/L	4a/ 4cc	4cc\	-dem-	.
8E/J 8B- 8d	.	.	.	.
8E/L 8B- 8d	[4g/ [4b-	4b-\	-nie,	.
8DD/J 8D	.	.	.	.
=22	=22	=22	=22	=22
8GG/L	8g/L] 8b-]	8r	.	.
8E/J 8B- 8d	16e/L	16e/	Nie	.
.	16f/JJ	16f/	daj	.
8E/L 8B- 8d	16g/LL	16g/	tęs-	.
.	16a/	16a/	-knić	.
8DD/J 8D	16cc/	16cc\	na-	.
.	16bn/JJ	16bn\	-da-	.
!!LO:PB:g=original
=23	=23	=23	=23	=23
8FF/L	4g/ 4b-X	4b-X\	-rem-	.
8D/J 8A 8d	.	.	.	.
8D/L 8A 8d	[4f/ [4a	4a/	-nie,	.
8AAA/J 8AA	.	.	.	.
=24	=24	=24	=24	=24
8DD/L 8D	8f/L] 8a]	8r	.	.
8F/J 8A	16d/L	16d/	Li-	.
.	16e/JJ	16e/	-cząc	.
8F/L 8A 8d	8f/L	8f/	w ser-	.
8AAA/J 8AA	16g/L	16g/	-cu	.
.	16g#X/JJ	16g#X/	ta-	.
=25	=25	=25	=25	=25
8EE/L 8E	4c#X/ 4a	4a/	-jem-	.
8G/J 8A	.	.	.	.
8E/L 8G	4B-/ 4g	4g/	-nie	.
8AAA/J 8AA	.	.	.	.
=26	=26	=26	=26	=26
8CC#X/L 8C#X	4A/ 4f	4f/	Mę-	.
8E/J 8G	.	.	.	.
8E\L	4G/ 4e	4e/	-ki	.
8AAA\J 8AA	.	.	.	.
=27	=27	=27	=27	=27
8DD/L 8D	16A/LL 16d 16f	16f/	i	.
.	16e/ 16g	16g/	roz-	.
8F/J 8A	16d/ 16f	16f/	-łą-	.
.	16e/JJ 16g	16g/	-ki	.
8F/L 8A 8d	[4f/ [4a	4a/	dni!	.
8AAA/J 8AA	.	.	.	.
=28	=28	=28	=28	=28
4DD/ 4D	8f/L] 8a]	8r	.	.
.	16d/L	16d/	Wró-	.
.	16e/JJ	16e/	-cisz	.
4r	8f/L	8f/	znów	.
.	16g/L	16g/	u-	.
.	16a/JJ	16a/	-ko-	.
!!LO:LB:g=original
=29	=29	=29	=29	=29
8GG/L 8G	4a/ 4cc	4cc\	-cha-	.
8E/J 8B- 8d	.	.	.	.
8E/L 8B- 8d	[4g/ [4b-	4b-\	-ny,	.
8DD/J 8D	.	.	.	.
=30	=30	=30	=30	=30
8GG/L 8G	8g/L] 8b-]	8r	.	.
8E/J 8B- 8d	16e/L	16e/	Za-	.
.	16f/JJ	16f/	-nim	.
8E/L 8B- 8d	16g/LL	16g/	się	.
.	16a/	16a/	za-	.
8DD/J 8D	16cc/	16cc\	-bliź-	.
.	16bn/JJ	16bn\	-nią	.
=31	=31	=31	=31	=31
8FF/L	4g/ 4b-X	4b-X\	ra-	.
8D/J 8A 8d	.	.	.	.
8D/L 8A 8d	[4f/ [4a	4a/	-ny,	.
8AAA/J 8AA	.	.	.	.
=32	=32	=32	=32	=32
8DD/L 8D	8f/L] 8a]	8r	.	.
8F/J 8A	16d/L	16d/	Je-	.
.	16e/JJ	16e/	-steś	.
8F/L 8A 8d	8f/L	8f/	na	.
8AAA/J 8AA	16g/L	16g/	mnie	.
.	16g#X/JJ	16g#X/	ska-	.
=33	=33	=33	=33	=33
8EE/L 8E	4c#X/ 4a	4a/	-za-	.
8G/J 8A	.	.	.	.
8E/L 8G	4B-/ 4g	4g/	-ny,	.
8AAA/J 8AA	.	.	.	.
=34	=34	=34	=34	=34
8CC#X/L 8C#X	4A/ 4f	4f/	Ser-	.
8E/J 8G	.	.	.	.
8E/L	4G/ 4e	4e/	-ce	.
8AAA/J 8AA	.	.	.	.
!!LO:LB:g=original
=35	=35	=35	=35	=35
8DD/L 8D	16A/LL 16f	16f/	skra-	.
.	16G/J 16e	16e/	-dłam	.
8AA/J	[8F/J [8d	[8d/	ci!	.
16D\LL	4F/_ 4d_	4d/]	.	.
16E\	.	.	.	.
16F\	.	.	.	.
16G\JJ	.	.	.	.
=36	=36	=36	=36	=36
8A\	8F/] 8d]	8r	.	.
8FF/L 8F	8d/L 8a 8dd	8dd\	Bę-	.
8EE/ 8E	8e/ 8a 8ee	8ee\	-dziesz	.
8DD/J 8D	8f/J 8a 8dd 8ff	8ff\	się	.
=37	=37	=37	=37	=37
8GGG/L 8GG	8.g\L 8.b- 8.ff	8.ff\	gło-	.
8E/J 8B- 8d	.	.	.	.
.	16ee\Jk	16ee\	-śno	.
8E/L 8B- 8d	[4b-\	4b-\	śmiał,	.
8DD/J 8D	.	.	.	.
=38	=38	=38	=38	=38
8GG/	8b-\]	8r	.	.
8E\L 8B- 8c#X	8e/L 8cc#X	8cc#X\	Bę-	.
8F\ 8B- 8d	8f/ 8dd	8dd\	-dziesz	.
8G\J 8B- 8e	8g/J 8ee	8ee\	ko-	.
=39	=39	=39	=39	=39
8FFF/L 8FF	8.a\L 8.ee	8.ee\	-me-	.
8D/J 8A 8d	.	.	.	.
.	16dd\Jk	16dd\	-dję	.
8D/L 8A 8d	[4a/	4a/	grał	.
8AA/J	.	.	.	.
=40	=40	=40	=40	=40
8FFF#X/L 8FF#X	8a/]	8r	.	.
8D/J 8A	8c/L 8a	8a/	I	.
8D/L 8A 8c	8.f#X/ 8.dd	8.dd\	bę-	.
8DD/J 8D	.	.	.	.
.	16c/Jk 16a	16a/	-dziesz	.
=41	=41	=41	=41	=41
8GG/L 8D	4a/ 4cc	4cc\	tę-	.
8G/J 8B- 8d	.	.	.	.
16G\LL 16B- 16d	[4g/ [4b-	4b-\	-sknił...	.
16GG\	.	.	.	.
16FF#X\	.	.	.	.
16FFn\JJ	.	.	.	.
!!LO:LB:g=original
=42	=42	=42	=42	=42
*	*^	*	*	*
8EE/L	8g/L] 8b-]	8r	8r	.	.
8CC/J 8C	16ee/L	8e\L 8b-	16ee\	jak	.
.	16dd/JJ	.	16dd\	ja	.
8DD/L 8D	8cc/L	8f\	8cc\	do-	.
8EE/J 8E	16bn/L	8g\J	16bn\	-brze	.
.	16b-X/JJ	.	16b-X\	to	.
=43	=43	=43	=43	=43	=43
4FF/ 4F	[2a/	8r	2a/	znam!...	.
.	.	8c\L 8f	.	.	.
4EE/ 4E	.	8r	.	.	.
.	.	8c#X\J 8g	.	.	.
=44	=44	=44	=44	=44	=44
8DD/L 8D	4a/]	4d\ 4f	8r	.	.
16D/L	.	.	16d/	Więc,	.
16E/JJ	.	.	16e/	nie	.
8F/L	4r	4ryy	8f/	od-	.
16G/L	.	.	16g/	-chodź	.
16A/JJ	.	.	16a/	o-	.
*	*v	*v	*	*	*
=45	=45	=45	=45	=45
4c\	8d/L 8e 8g	4cc\	-dem-	.
.	8d/ 8e 8g	.	.	.
[4B-\	8d/ 8e 8g	4b-\	-nie	.
.	8d/J 8e 8g	.	.	.
=46	=46	=46	=46	=46
8B-\L]	8d/L 8e 8g	8r	.	.
16E\L	8d/ 8e 8g	16e/	Tak	.
16F\JJ	.	16f/	nie-	.
16G\LL	8d/ 8e 8g	16g/	-lu-	.
16A\	.	16a/	-dzko	.
16c\	8d/J 8e 8g	16cc\	i	.
16Bn\JJ	.	16bn\	nik-	.
=47	=47	=47	=47	=47
4B-X\	8d/L 8f	4b-X\	-czem-	.
.	8d/ 8f	.	.	.
[4A\	8d/ 8f	4a/	-nie!	.
.	8d/J 8f	.	.	.
!!LO:LB:g=original
=48	=48	=48	=48	=48
8A\L]	8d/L 8f 8a	8r	.	.
16D\L	8d/ 8f 8a	16d/	Cóż	.
16E\JJ	.	16e/	u-	.
8F\L	8d/ 8f 8a	8f/	-czy-	.
16G\L	8d/J 8f 8a	16g/	-nisz	.
16G#X\JJ	.	16g#X/	be-	.
=49	=49	=49	=49	=49
4A\	8c#X/L 8g 8a	4a/	-zem-	.
.	8c#/ 8g 8a	.	.	.
4G\	8c#/ 8g 8a	4g/	-nie	.
.	8c#/J 8g 8a	.	.	.
=50	=50	=50	=50	=50
4F\	8c#X/L 8g 8a	4f/	Bie-	.
.	8c#/ 8g 8a	.	.	.
4E\	8c#/ 8g 8a	4e/	-dny,	.
.	8c#/J 8g 8a	.	.	.
=51	=51	=51	=51	=51
*>B1	*>B1	*>B1	*	*
*^	*	*	*	*
2D/	8DD\L	8d/L 8f 8a	2d/	sam?	.
.	8r	8d/ 8f 8a	.	.	.
.	8r	8d/ 8f 8a	.	.	.
.	8AAA\J 8AA	8d/J 8f 8a	.	.	.
*v	*v	*	*	*	*
=52	=52	=52	=52	=52
4DD/ 4D	8d/L 8f 8a	8r	.	.
.	16d/L	16d/	Ach,	.
.	16e/JJ	16e/	nie	.
4r	8f/L	8f/	od-	.
.	16g/L	16g/	-chodź	.
.	16a/JJ	16a/	o-	.
=53:|!	=53:|!	=53:|!	=53:|!	=53:|!
*>B2	*>B2	*>B2	*	*
*^	*	*	*	*
[2D/	8DD\L	8d/L 8f 8a	[2d/	-sam?	.
.	8r	8d/ 8f 8a	.	.	.
.	8r	8d/ 8f 8a	.	.	.
.	8AAA\J 8AA	8d/J 8f 8a	.	.	.
=54	=54	=54	=54	=54	=54
8D/]	8DD\	8d/ 8f 8a	4d/]	.	.
8r	8r	8r	.	.	.
8DD/ 8AA 8F	4ryy	8d/ 8f 8a 8dd	4r	.	.
8r	.	8r	.	.	.
*v	*v	*	*	*	*
==	==	==	==	==
*-	*-	*-	*-	*-
!!!system-decoration: s1{(s2,s3)}
!!!RDF**kern: < = below
!!!RDF**kern: > = above
!!!ENC: Anastazja Marusiak
!!!END: 2023-08-25
!!!ENC: Marta Chmielewska
!!!END: 2023-09-23
